X: 24152
T: Lookout Pack, The
R: polka
M: 2/4
K: Edorian
L:1/16
E2BA G2E2|B2A2 B2E2|E2BA G2E2|d2E2 c2d2|
E2E2 BAG2|E2B2 A2BA|G2E2 BAG2|A4 ABAG|
E2BA G2E2|B2A2 B2E2|E2BA G2E2|d2E2 c2d2|
E2E2 BAG2|E2B2 A2Bd|ageg feag|e2ba g4||
|:a3b age2|efg2 fea2-|a2ba ge2g|fe2d B3f|
gf2d e4|fgf2 de3|age2- egag|1 e2ba g4:|2 e2gf e2dB||


